assets/img/logos/logo-square.svg

<svg viewBox="0 0 1024 190" xmlns="http://www.w3.org/2000/svg"><g fill="#fff"><path d="m924.39 76.06c0-9.6-5.81-14-19.08-14h-5.8v28.45h5.8c13.39 0 19.08-4.5 19.08-14.45m16.23-.12c0 16.47-9.72 23.69-32.11 23.69h-9v18.72c0 2.84.59 3.55 2.25 3.55h6.52v9.36h-34.59v-9.36h5.92c1.66 0 2.25-.71 2.25-3.55v-52.84c0-3-.59-3.55-2.25-3.55h-5.92v-9.36h34.94c21.8 0 32 7.58 32 23.34m70.37 45.81a93.12 93.12 0 1 0 -3.67 9.51h-24.42v-9.36h5.09c2.13 0 3-.71 2-3.43l-5.21-13.86h-26.05l-5 13.86c-.83 2.72-.12 3.43 2 3.43h4.74v9.36h-27.33v-9.36h4.62c2.49 0 3.08-.71 4.15-3.67l24.64-66h17.53l24.29 66c.71 2.22 1.49 3.18 2.63 3.52m-39.12-54.81-10.31 29.06h20.62z"/><path d="m764.88 83.86v73.14c0 3.66-.77 4.57-2.9 4.57h-8.38v12h44.48v-12h-8.38c-2.13 0-2.89-.91-2.89-4.57v-73.14h12c6.4 0 7.77 1.06 9.6 5.48l.76 9h10.2v-25.9h-86.37v25.89h10.21l.76-9c1.68-4.42 3.2-5.48 9.44-5.48zm-71.43 44v29.14c0 3.66-.77 4.57-2.9 4.57h-7.46v12h43.56v-12h-7.65c-2.13 0-2.89-.91-2.89-4.57v-68c0-3.81.76-4.57 2.89-4.57h7.62v-12h-43.53v12h7.46c2.13 0 2.9.76 2.9 4.57v27.6h-39.15v-27.6c0-3.81.76-4.57 2.9-4.57h7.46v-12h-43.56v12h7.62c2.13 0 2.89.76 2.89 4.57v68c0 3.66-.76 4.57-2.89 4.57h-7.62v12h43.56v-12h-7.46c-2.14 0-2.9-.91-2.9-4.57v-29.13zm-94.45 32.61 5 13.1h9v-50.11h-41.09v12h21.17v3.81c0 12.79-7.62 20.41-20.72 20.41-17.51 0-26.5-10.36-26.5-35v-3.81c0-22.85 10-34.57 29.25-34.57 10.35 0 16.29 2.89 20.56 5.78l.15 17.67h17.06v-29.55c-7.62-4.87-20.41-9.74-39.45-9.74-32.9 0-51.17 18.73-51.17 52.69 0 33.21 17.36 52.4 46 52.4 14.77 0 25.28-5.33 30.77-15.08m-126.73 13.1h43.7v-12h-7.6c-2.14 0-2.9-.91-2.9-4.57v-68c0-3.81.76-4.57 2.9-4.57h7.6v-12h-43.7v12h7.61c2.14 0 2.9.76 2.9 4.57v68c0 3.66-.76 4.57-2.9 4.57h-7.61zm-83.92 0h78.74v-32.75h-11.88l-2.89 15.69c-1.37 4.57-3.05 5-9.45 5h-21.32v-72.51c0-3.81.76-4.57 2.9-4.57h8.37v-12h-44.47v12h7.62c2.14 0 2.9.76 2.9 4.57v68c0 3.66-.76 4.57-2.9 4.57h-7.61zm-60.92-89.71v73.14c0 3.66-.76 4.57-2.89 4.57h-8.38v12h44.47v-12h-8.38c-2.13 0-2.89-.91-2.89-4.57v-73.14h12c6.4 0 7.77 1.06 9.6 5.48l.76 9h10.25v-25.9h-86.37v25.89h10.2l.76-9c1.68-4.42 3.2-5.48 9.45-5.48zm-87 77.83c-17.36 0-27.56-12.95-27.56-36.4v-4.29c0-23.61 10.5-36.7 27.87-36.7 17.06 0 27.26 13.09 27.26 36.7v4.27c0 23.6-10.36 36.4-27.57 36.4m-.3 13.86c31.07 0 51-20.72 51-52.4 0-32-19.34-52.69-50.11-52.69-31.37 0-51.78 21-51.78 52.69s19.65 52.4 50.87 52.4m-108.9-54.38v-36.53h7.46c17.06 0 24.52 5.64 24.52 18 0 12.8-7.31 18.58-24.52 18.58zm0 11.73h11.57c28.79 0 41.28-9.29 41.28-30.46 0-20.26-13.1-30-41.12-30h-44.88v12h7.61c2.13 0 2.9.76 2.9 4.57v68.01c0 3.66-.77 4.57-2.9 4.57h-7.61v12h44.47v-12h-8.38c-2.13 0-2.89-.91-2.89-4.57zm-79.2 42.65c25.89 0 39.75-12.64 39.75-32.75 0-18.89-13.7-26-31.68-30.16-13.7-3-23.3-5.17-23.3-14.77 0-8.53 7-14.62 17.82-14.62a41.78 41.78 0 0 1 19 4.26v11.9h15.01v-21.17c-7.92-4.26-19-7.76-34.11-7.76-25 0-38.84 12.79-38.84 32.44 0 18.27 13.4 25.13 30.92 29.09 15.23 3.35 24.06 6.24 24.06 16.29 0 8.53-7.16 14.47-18.43 14.47a48.5 48.5 0 0 1 -20.86-4.41v-13.1h-15.84v22.69a87.42 87.42 0 0 0 36.55 7.62"/></g></svg>

<svg xmlns="http://www.w3.org/2000/svg" viewBox="0 0 1024 190"><defs><style>.cls-1{isolation:isolate;}.cls-2{mix-blend-mode:screen;}.cls-3{fill:#fff;}</style></defs><title>Artboard 1</title><g class="cls-1"><g id="Layer_1" data-name="Layer 1"><g class="cls-2"><path class="cls-3" d="M924.39,76.06c0-9.6-5.81-14-19.08-14h-5.8V90.51h5.8c13.39,0,19.08-4.5,19.08-14.45m16.23-.12c0,16.47-9.72,23.69-32.11,23.69h-9v18.72c0,2.84.59,3.55,2.25,3.55h6.52v9.36H873.69V121.9h5.92c1.66,0,2.25-.71,2.25-3.55V65.51c0-3-.59-3.55-2.25-3.55h-5.92V52.6h34.94c21.8,0,32,7.58,32,23.34M1011,121.75a93.12,93.12,0,1,0-3.67,9.51H982.91V121.9H988c2.13,0,3-.71,2-3.43l-5.21-13.86H958.74l-5,13.86c-.83,2.72-.12,3.43,2,3.43h4.74v9.36H933.15V121.9h4.62c2.49,0,3.08-.71,4.15-3.67l24.64-66h17.53l24.29,66c.71,2.22,1.49,3.18,2.63,3.52M971.89,66.94,961.58,96H982.2Z"/></g><path class="cls-3" d="M764.88,83.86V157c0,3.66-.77,4.57-2.9,4.57H753.6v12h44.48v-12H789.7c-2.13,0-2.89-.91-2.89-4.57V83.86h12c6.4,0,7.77,1.06,9.6,5.48l.76,9h10.2V72.44H733V98.33h10.21l.76-9c1.68-4.42,3.2-5.48,9.44-5.48Zm-71.43,44V157c0,3.66-.77,4.57-2.9,4.57h-7.46v12h43.56v-12H719c-2.13,0-2.89-.91-2.89-4.57V89c0-3.81.76-4.57,2.89-4.57h7.62v-12H683.09v12h7.46c2.13,0,2.9.76,2.9,4.57V116.6H654.3V89c0-3.81.76-4.57,2.9-4.57h7.46v-12H621.1v12h7.62c2.13,0,2.89.76,2.89,4.57V157c0,3.66-.76,4.57-2.89,4.57H621.1v12h43.56v-12H657.2c-2.14,0-2.9-.91-2.9-4.57V127.87ZM599,160.47l5,13.1h9V123.46H571.91v12h21.17v3.81c0,12.79-7.62,20.41-20.72,20.41-17.51,0-26.5-10.36-26.5-35v-3.81c0-22.85,10-34.57,29.25-34.57,10.35,0,16.29,2.89,20.56,5.78l.15,17.67h17.06V80.2c-7.62-4.87-20.41-9.74-39.45-9.74-32.9,0-51.17,18.73-51.17,52.69,0,33.21,17.36,52.4,46,52.4,14.77,0,25.28-5.33,30.77-15.08M472.3,173.57H516v-12H508.4c-2.14,0-2.9-.91-2.9-4.57V89c0-3.81.76-4.57,2.9-4.57H516v-12H472.3v12h7.61c2.14,0,2.9.76,2.9,4.57V157c0,3.66-.76,4.57-2.9,4.57H472.3Zm-83.92,0h78.74V140.82H455.24l-2.89,15.69c-1.37,4.57-3.05,5-9.45,5H421.58V89c0-3.81.76-4.57,2.9-4.57h8.37v-12H388.38v12H396c2.14,0,2.9.76,2.9,4.57V157c0,3.66-.76,4.57-2.9,4.57h-7.61ZM327.46,83.86V157c0,3.66-.76,4.57-2.89,4.57h-8.38v12h44.47v-12h-8.38c-2.13,0-2.89-.91-2.89-4.57V83.86h12c6.4,0,7.77,1.06,9.6,5.48l.76,9H382V72.44H295.63V98.33h10.2l.76-9c1.68-4.42,3.2-5.48,9.45-5.48Zm-87,77.83c-17.36,0-27.56-12.95-27.56-36.4V121c0-23.61,10.5-36.7,27.87-36.7,17.06,0,27.26,13.09,27.26,36.7v4.27c0,23.6-10.36,36.4-27.57,36.4m-.3,13.86c31.07,0,51-20.72,51-52.4,0-32-19.34-52.69-50.11-52.69-31.37,0-51.78,21-51.78,52.69s19.65,52.4,50.87,52.4m-108.9-54.38V84.62h7.46c17.06,0,24.52,5.64,24.52,18,0,12.8-7.31,18.58-24.52,18.58Zm0,11.73h11.57c28.79,0,41.28-9.29,41.28-30.46,0-20.26-13.1-30-41.12-30H98.09v12h7.61c2.13,0,2.9.76,2.9,4.57V157c0,3.66-.77,4.57-2.9,4.57H98.09v12h44.47v-12h-8.38c-2.13,0-2.89-.91-2.89-4.57Zm-79.2,42.65c25.89,0,39.75-12.64,39.75-32.75,0-18.89-13.7-26-31.68-30.16-13.7-3-23.3-5.17-23.3-14.77,0-8.53,7-14.62,17.82-14.62a41.78,41.78,0,0,1,19,4.26V99.39H88.64V78.22c-7.92-4.26-19-7.76-34.11-7.76-25,0-38.84,12.79-38.84,32.44,0,18.27,13.4,25.13,30.92,29.09,15.23,3.35,24.06,6.24,24.06,16.29,0,8.53-7.16,14.47-18.43,14.47a48.5,48.5,0,0,1-20.86-4.41v-13.1H15.54v22.69a87.42,87.42,0,0,0,36.55,7.62"/></g></g></svg>
